public/static/icons/editor/inline_bold.svg

<svg height="24" viewBox="0 0 24 24" width="24" xmlns="http://www.w3.org/2000/svg"><path d="m21.5188212 16.5880682c0 1.0120733-.2130694 1.8714489-.6427565 2.5710221-.4261362.6995731-1.0404824 1.2535504-1.8359367 1.6583808-.8487213.4296871-1.8217329.7386364-2.9261365.9161922-1.1044036.1775572-1.4950288.2663367-2.9900577.2663367h-10.64275505v-1.6228702c.29119313-.024858 1.84659091-.3799724 1.84659091-1.7755677v-12.91548218c0-1.69034081-1.55539778-1.88565413-1.84659091-1.93181787v-1.75426205h10.86647735c2.7343755 0 3.3096585.37642146 4.5205961 1.12571068 1.2144886.75284154 1.8181819 1.86079609 1.8181819 3.32741596 0 2.80539725-2.244318 4.48153426-2.9758511 4.65198816v.2663351c.7315331.0745741 4.8082382.8664775 4.8082382 5.2166197zm-6.8252844-9.29332349c0-.82741427-.3125002-1.47727272-.9375006-1.93892114-.6250005-.46875031-1.3529826-.69957315-2.6029835-.69957315-.1775571 0-.4083813.00710328-.6960222.01775613-.2840912.01065423-.53267151.02130709-.73863631.02485804v5.54687601h.73153311c1.5234378 0 2.4360804-.2663351 3.1605116-.79545434.7208802-.52912062 1.0830979-1.24644852 1.0830979-2.15554017zm.7386364 8.77485849c0-1.0617895-.3941763-1.8749999-1.1896306-2.4396314-.7919034-.5646315-1.729404-.8487214-3.2173296-.8487214-.1704539 0-.3977272.003551-.6818184.0177562-.2805403.0106542-.49005739.0177561-.62500041.024858v6.5198861h2.09516991c1.0724436 0 1.9424721-.2840912 2.6136362-.8558232.6711642-.5752844 1.0049729-1.3813916 1.0049729-2.4183243z" fill-rule="evenodd"/></svg>

<svg xmlns="http://www.w3.org/2000/svg" width="24" height="24" viewBox="0 0 24 24">
  <path fill-rule="evenodd" d="M21.5188212,16.5880682 C21.5188212,17.6001415 21.3057518,18.4595171 20.8760647,19.1590903 C20.4499285,19.8586634 19.8355823,20.4126407 19.040128,20.8174711 C18.1914067,21.2471582 17.2183951,21.5561075 16.1139915,21.7336633 C15.0095879,21.9112205 14.6189627,22 13.1239338,22 L2.48117875,22 L2.48117875,20.3771298 C2.77237188,20.3522718 4.32776966,19.9971574 4.32776966,18.6015621 L4.32776966,5.68607992 C4.32776966,3.99573911 2.77237188,3.80042579 2.48117875,3.75426205 L2.48117875,2 L13.3476561,2 C16.0820316,2 16.6573146,2.37642146 17.8682522,3.12571068 C19.0827408,3.87855222 19.6864341,4.98650677 19.6864341,6.45312664 C19.6864341,9.25852389 17.4421161,10.9346609 16.710583,11.1051148 L16.710583,11.3714499 C17.4421161,11.446024 21.5188212,12.2379274 21.5188212,16.5880696 L21.5188212,16.5880682 Z M14.6935368,7.29474471 C14.6935368,6.46733044 14.3810366,5.81747199 13.7560362,5.35582357 C13.1310357,4.88707326 12.4030536,4.65625042 11.1530527,4.65625042 C10.9754956,4.65625042 10.7446714,4.6633537 10.4570305,4.67400655 C10.1729393,4.68466078 9.92435899,4.69531364 9.71839419,4.69886459 L9.71839419,10.2457406 L10.4499273,10.2457406 C11.9733651,10.2457406 12.8860077,9.9794055 13.6104389,9.45028626 C14.3313191,8.92116564 14.6935368,8.20383774 14.6935368,7.29474609 L14.6935368,7.29474471 Z M15.4321732,16.0696032 C15.4321732,15.0078137 15.0379969,14.1946033 14.2425426,13.6299718 C13.4506392,13.0653403 12.5131386,12.7812504 11.025213,12.7812504 C10.8547591,12.7812504 10.6274858,12.7848014 10.3433946,12.7990066 C10.0628543,12.8096608 9.85333721,12.8167627 9.71839419,12.8238646 L9.71839419,19.3437507 C9.71839419,19.3437507 11.2098721,19.3437507 11.8135641,19.3437507 C12.8860077,19.3437507 13.7560362,19.0596595 14.4272003,18.4879275 C15.0983645,17.9126431 15.4321732,17.1065359 15.4321732,16.0696032 L15.4321732,16.0696032 Z"/>
</svg>
